X: 2850
T: Bare Assed, The
R: barndance
M: 4/4
K: Gmajor
G2 GA GE D2|GFGA Bddg|e2 dg edBd|gedB AGEF|
G2 GA GE D2|GFGA Bd d2|eged B^ABd|gedB G2:|
e2 e^def g2|edBd ef g2|edBd gdBd|
[1 eGdG AGEG|e2 e^d ef g2|edBd efgd|eGdG gdBd|eGdB G2:|
[2 gGdG AFDF|G2 DA GE D2|G2 FA Bd d2|eged B^ABd|gedB G2||

